modules/hawcons-stroke/icons/icon-11-file-html.svg

<?xml version="1.0" encoding="UTF-8" standalone="no"?>
<svg width="32px" height="32px" viewBox="0 0 32 32" version="1.1" xmlns="http://www.w3.org/2000/svg" xmlns:xlink="http://www.w3.org/1999/xlink" xmlns:sketch="http://www.bohemiancoding.com/sketch/ns">
    <!-- Generator: Sketch 3.0.3 (7891) - http://www.bohemiancoding.com/sketch -->
    <title>icon 11 file html</title>
    <desc>Created with Sketch.</desc>
    <defs></defs>
    <g id="Page-1" stroke="none" stroke-width="1" fill="none" fill-rule="evenodd" sketch:type="MSPage">
        <g id="icon-11-file-html" sketch:type="MSArtboardGroup" fill="#929292">
            <path d="M4.99428189,10 C3.34058566,10 2,11.3422643 2,12.9987856 L2,20.0012144 C2,21.6573979 3.3405687,23 4.99428189,23 L28.0057181,23 C29.6594143,23 31,21.6577357 31,20.0012144 L31,12.9987856 C31,11.3426021 29.6594313,10 28.0057181,10 L4.99428189,10 L4.99428189,10 Z M5.00732994,11 C3.89871223,11 3,11.9001762 3,12.992017 L3,20.007983 C3,21.1081436 3.89833832,22 5.00732994,22 L27.9926701,22 C29.1012878,22 30,21.0998238 30,20.007983 L30,12.992017 C30,11.8918564 29.1016617,11 27.9926701,11 L5.00732994,11 L5.00732994,11 Z M28,19 L28,20 L23,20 L23,13 L24,13 L24,19 L28,19 L28,19 Z M13,14 L13,20 L14,20 L14,14 L16,14 L16,13 L11,13 L11,14 L13,14 L13,14 Z M9,16 L9,13 L10,13 L10,20 L9,20 L9,17 L6,17 L6,20 L5,20 L5,13 L6,13 L6,16 L9,16 L9,16 Z M19.5,16 L18,13 L17.5,13 L17,13 L17,20 L18,20 L18,15 L19,17 L19.5,17 L20,17 L21,15 L21,20 L22,20 L22,13 L21.5,13 L21,13 L19.5,16 L19.5,16 Z" id="file-html" sketch:type="MSShapeGroup"></path>
        </g>
    </g>
</svg>

<svg width="32" height="32" viewBox="0 0 32 32" xmlns="http://www.w3.org/2000/svg"><path d="M4.994 10A2.996 2.996 0 0 0 2 12.999V20A2.997 2.997 0 0 0 4.994 23h23.012A2.996 2.996 0 0 0 31 20.001V13A2.997 2.997 0 0 0 28.006 10H4.994zm.013 1C3.9 11 3 11.9 3 12.992v7.016A2 2 0 0 0 5.007 22h22.986C29.1 22 30 21.1 30 20.008v-7.016A2 2 0 0 0 27.993 11H5.007zM28 19v1h-5v-7h1v6h4zm-15-5v6h1v-6h2v-1h-5v1h2zm-4 2v-3h1v7H9v-3H6v3H5v-7h1v3h3zm10.5 0L18 13h-1v7h1v-5l1 2h1l1-2v5h1v-7h-1l-1.5 3z" fill="#929292" fill-rule="evenodd"/></svg>
